icon/lg/mastodon-icon.svg

<?xml version="1.0" encoding="UTF-8"?>
<svg viewBox="0 0 256 274" version="1.1" xmlns="http://www.w3.org/2000/svg" xmlns:xlink="http://www.w3.org/1999/xlink" preserveAspectRatio="xMidYMid" height="1em" width="1em">
  <g>
    <path d="M249.874103,164.084793 C246.121107,183.392442 216.260831,204.522765 181.966269,208.61788 C164.083135,210.751705 146.475762,212.712995 127.700462,211.851797 C96.9952088,210.444977 72.7666374,204.522765 72.7666374,204.522765 C72.7666374,207.511889 72.9509692,210.357972 73.3196328,213.019724 C77.3115222,243.322396 103.36719,245.137696 128.048481,245.984147 C152.959817,246.836498 175.141568,239.842212 175.141568,239.842212 L176.164978,262.363134 C176.164978,262.363134 158.740462,271.719816 127.700462,273.440737 C110.584149,274.381567 89.33143,273.010138 64.5778816,266.458249 C10.8916144,252.248479 1.65880329,195.021567 0.246084399,136.955576 C-0.184514679,119.715392 0.080923109,103.458802 0.080923109,89.8624885 C0.080923109,30.4870046 38.9837803,13.0831336 38.9837803,13.0831336 C58.5996328,4.07447005 92.258619,0.286082949 127.250693,0 L128.110416,0 C163.10249,0.286082949 196.783596,4.07447005 216.397974,13.0831336 C216.397974,13.0831336 255.299356,30.4870046 255.299356,89.8624885 C255.299356,89.8624885 255.787467,133.670046 249.874103,164.084793" fill="#3088D4"/>
    <path d="M209.412536,94.4687189 L209.412536,166.362544 L180.929587,166.362544 L180.929587,96.5818986 C180.929587,81.8722212 174.740462,74.4060461 162.360739,74.4060461 C148.672997,74.4060461 141.812905,83.2628203 141.812905,100.775816 L141.812905,138.970839 L113.498066,138.970839 L113.498066,100.775816 C113.498066,83.2628203 106.636499,74.4060461 92.9487572,74.4060461 C80.5690337,74.4060461 74.3799093,81.8722212 74.3799093,96.5818986 L74.3799093,166.362544 L45.89696,166.362544 L45.89696,94.4687189 C45.89696,79.7752627 49.6381581,68.0989493 57.1529968,59.460424 C64.9023056,50.8218986 75.050877,46.3935115 87.6488494,46.3935115 C102.224333,46.3935115 113.262121,51.9957235 120.560186,63.2016221 L127.654748,75.0947097 L134.750785,63.2016221 C142.047375,51.9957235 153.085163,46.3935115 167.662121,46.3935115 C180.258619,46.3935115 190.40719,50.8218986 198.157974,59.460424 C205.671338,68.0989493 209.412536,79.7752627 209.412536,94.4687189" fill="#FFFFFF"/>
  </g>
</svg>

<svg width="256" height="274" xmlns="http://www.w3.org/2000/svg" preserveAspectRatio="xMidYMid"><path d="M249.874 164.085c-3.753 19.307-33.613 40.438-67.908 44.533-17.883 2.134-35.49 4.095-54.266 3.234-30.705-1.407-54.933-7.33-54.933-7.33 0 2.99.184 5.836.553 8.498 3.992 30.302 30.047 32.118 54.728 32.964 24.912.852 47.094-6.142 47.094-6.142l1.023 22.521s-17.425 9.357-48.465 11.078c-17.116.94-38.369-.43-63.122-6.983-53.686-14.21-62.92-71.436-64.332-129.502-.43-17.24-.165-33.497-.165-47.094 0-59.375 38.903-76.779 38.903-76.779C58.6 4.074 92.259.286 127.25 0h.86c34.991.286 68.673 4.074 88.287 13.083 0 0 38.901 17.404 38.901 76.78 0 0 .488 43.807-5.425 74.222" fill="#3088D4"/><path d="M209.413 94.469v71.894H180.93V96.582c0-14.71-6.19-22.176-18.57-22.176-13.687 0-20.547 8.857-20.547 26.37v38.195h-28.315v-38.195c0-17.513-6.862-26.37-20.55-26.37-12.379 0-18.568 7.466-18.568 22.176v69.78H45.897V94.47c0-14.694 3.741-26.37 11.256-35.009 7.75-8.638 17.898-13.066 30.496-13.066 14.575 0 25.613 5.602 32.911 16.808l7.095 11.893 7.096-11.893c7.296-11.206 18.334-16.808 32.911-16.808 12.597 0 22.745 4.428 30.496 13.066 7.513 8.639 11.255 20.315 11.255 35.009" fill="#FFF"/></svg>
